brandFactory_export/1.Light/Arbol _1Light.svg

<?xml version="1.0" encoding="UTF-8"?>
<svg width="24px" height="24px" viewBox="0 0 24 24" version="1.1" xmlns="http://www.w3.org/2000/svg" xmlns:xlink="http://www.w3.org/1999/xlink">
    <title>1.Light/Arbol _1Light</title>
    <g id="Symbols" stroke="none" stroke-width="1" fill="none" fill-rule="evenodd">
        <g id="1.Light/Arbol-_1Light" fill="#5CB615" fill-rule="nonzero">
            <path d="M18.594958,9.58991597 C18.3831933,9.74117647 18.3327731,10.0369748 18.4806723,10.2487395 C18.5210084,10.3058824 18.5714286,10.3529412 18.6319328,10.3865546 C19.307563,10.7932773 19.6336134,11.4655462 19.6336134,12.4403361 C19.6336134,13.7008403 19.0621849,14.4941176 17.9327731,14.7932773 C17.707563,14.8537815 17.5630252,15.1327731 17.5630252,15.3512605 C17.5630252,19.0184874 14.1579832,19.3042017 13.112605,19.3042017 L13.0991597,19.3042017 L13.0991597,13.6705882 C13.1226891,13.6470588 13.1563025,13.6336134 13.1764706,13.6067227 L15.9428571,10.0840336 C16.1042017,9.8789916 16.0705882,9.58319328 15.8655462,9.42184874 C15.8554622,9.41512605 15.8453782,9.40504202 15.8352941,9.39831933 C15.6033613,9.24033613 15.287395,9.28403361 15.1092437,9.49915966 L13.102521,12.0571429 L13.102521,9.08907563 C13.102521,8.82016807 12.8705882,8.60168067 12.5848739,8.60168067 C12.2991597,8.60168067 12.0672269,8.82016807 12.0672269,9.08907563 L12.0672269,15.9462185 L9.64033613,13.6470588 C9.43529412,13.4554622 9.11596639,13.4554622 8.90756303,13.6436975 C8.71596639,13.8184874 8.70252101,14.1142857 8.87731092,14.3058824 C8.88739496,14.3159664 8.89411765,14.3260504 8.90420168,14.3327731 L12.0201681,17.287395 C12.0336134,17.3008403 12.0504202,17.3042017 12.0638655,17.3142857 L12.0638655,19.1966387 C10.9378151,19.005042 9.32436975,18.4369748 8.82689076,16.692437 C8.75966387,16.4773109 8.56470588,16.3327731 8.3394958,16.3327731 C7.34453782,16.3092437 5.03529412,15.9563025 5.03529412,13.1798319 C5.03529412,12.0571429 5.40504202,11.2201681 6.13445378,10.6857143 C6.26890756,10.5882353 6.3394958,10.4336134 6.33277311,10.2756303 C6.32268908,10.1142857 6.23193277,9.96638655 6.09411765,9.88571429 C5.42184874,9.48235294 5.09243697,8.81008403 5.09243697,7.83193277 C5.09243697,6.56134454 5.64705882,5.79159664 6.79663866,5.4789916 C7.01848739,5.41848739 7.16302521,5.14285714 7.16302521,4.92436975 C7.16302521,1.25714286 10.5680672,0.971428571 11.6134454,0.971428571 C12.4436975,0.971428571 15.210084,1.15966387 15.8991597,3.57647059 C15.9596639,3.78151261 16.1546218,3.92941176 16.3831933,3.93613445 C17.6201681,3.97647059 19.6941176,4.43697479 19.6941176,7.09579832 C19.6941176,8.23529412 19.3344538,9.0487395 18.594958,9.58991597 M20.7327731,7.10252101 C20.7327731,4.32605042 18.7596639,3.1697479 16.789916,2.98823529 C15.7310924,0.14789916 12.312605,0 11.6168067,0 C10.7226891,0 6.35630252,0.225210084 6.14453782,4.66554622 C4.79663866,5.17310924 4.0605042,6.28571429 4.0605042,7.84201681 C4.0605042,9.0789916 4.51764706,9.85546218 5.02857143,10.3327731 C4.34285714,11.0420168 4,12 4,13.1865546 C4,15.9764706 5.9697479,17.1260504 7.9394958,17.297479 C8.71596639,19.3747899 10.7563025,20.010084 12.0672269,20.2016807 L12.0672269,23.1361345 C12.0672269,23.4084034 12.2991597,23.6235294 12.5848739,23.6235294 C12.8705882,23.6235294 13.102521,23.405042 13.102521,23.1361345 L13.102521,20.2823529 L13.1159664,20.2823529 C14.010084,20.2823529 18.3764706,20.0571429 18.5882353,15.6168067 C19.4957983,15.2773109 20.6756303,14.4504202 20.6756303,12.4403361 C20.6756303,11.3781513 20.3495798,10.5411765 19.707563,9.94621849 C20.389916,9.24033613 20.7327731,8.28571429 20.7327731,7.10252101" id="Arbol-_1Light"></path>
        </g>
    </g>
</svg>

<svg width="24" height="24" viewBox="0 0 24 24" xmlns="http://www.w3.org/2000/svg"><path d="M18.595 9.59a.477.477 0 00.037.797c.676.406 1.002 1.079 1.002 2.053 0 1.26-.572 2.054-1.701 2.353-.225.06-.37.34-.37.558 0 3.667-3.405 3.953-4.45 3.953h-.014v-5.633c.024-.024.057-.037.077-.064l2.767-3.523a.47.47 0 00-.077-.662l-.03-.024a.546.546 0 00-.727.101l-2.006 2.558V9.09c0-.269-.232-.487-.518-.487-.286 0-.518.218-.518.487v6.857L9.64 13.647a.542.542 0 00-.732-.003.468.468 0 00-.03.662c.01.01.016.02.026.027l3.116 2.954c.014.014.03.017.044.027v1.883c-1.126-.192-2.74-.76-3.237-2.505a.508.508 0 00-.488-.36c-.994-.023-3.304-.376-3.304-3.152 0-1.123.37-1.96 1.1-2.494a.48.48 0 00.198-.41.49.49 0 00-.239-.39c-.672-.404-1.002-1.076-1.002-2.054 0-1.27.555-2.04 1.705-2.353.221-.06.366-.336.366-.555 0-3.667 3.405-3.953 4.45-3.953.83 0 3.597.189 4.286 2.605.06.206.256.353.484.36 1.237.04 3.311.501 3.311 3.16 0 1.14-.36 1.953-1.099 2.494m2.138-2.487c0-2.777-1.973-3.933-3.943-4.115C15.73.148 12.313 0 11.617 0c-.894 0-5.26.225-5.472 4.666-1.348.507-2.084 1.62-2.084 3.176 0 1.237.457 2.013.968 2.49C4.343 11.043 4 12 4 13.188c0 2.79 1.97 3.94 3.94 4.11.776 2.078 2.816 2.713 4.127 2.905v2.934c0 .272.232.488.518.488.286 0 .518-.219.518-.488v-2.854h.013c.894 0 5.26-.225 5.472-4.665.908-.34 2.088-1.167 2.088-3.177 0-1.062-.326-1.899-.968-2.494.682-.706 1.025-1.66 1.025-2.843" fill="#5CB615" fill-rule="nonzero"/></svg>
